X:1
L:1/4
Q:1/4=72
M:3/8
V:1
V:2 clef=bass 
K:C
[V:1] c (3d/4 z/4 [Bc]/4 | (3z/4 [gG]/4[gA]/4 (3z/4 [gB]/4[gc]/4 (3z/4 [gd]/4[ge]/4 | (3z/4 [gc']/4[ba]/4 (3z/4 [gf]/4[ed]/4 (3z/4 [gf]/4[dc]/4 | (3z/4 [gG]/4[gA]/4 (3z/4 [gB]/4[gc]/4 (3z/4 [gd]/4[ge]/4 |
[V:2] G,/4E/4G,/4F/4G,/4F/4 | [CE]/ z/4 [FG]/4[EG]/4[DFG]/4 | [CEG]/[F,A,]/[G,B,]/ | C/ z/4 [FG]/4[EG]/4[DFG]/4 |
